static/logos/auth0-wordmark-color.svg

<svg width="100" height="30" viewBox="0 0 100 30" fill="none" xmlns="http://www.w3.org/2000/svg">
<g clip-path="url(#clip0_1_3456)">
<path d="M22.8807 0H13.2863L16.249 9.27274H25.8436L18.0836 14.7951L21.0463 24.117C26.0398 20.4651 27.678 14.9328 25.8436 9.2629L22.8807 0ZM0.729002 9.27274H10.3235L13.2863 0H3.69173L0.729002 9.27274C-1.10553 14.9427 0.532795 20.4748 5.52627 24.1269L8.489 14.8049L0.729002 9.27274ZM5.52627 24.117L13.2863 29.6295L21.0463 24.117L13.2863 18.5062L5.52627 24.117ZM77.9365 9.03649C75.6704 9.03649 74.2184 10.0701 73.5415 11.7534H73.3649V4.12451H69.9607V24.0777H73.4433V15.4152C73.4433 13.2693 74.7678 12.0388 76.6416 12.0388C78.4663 12.0388 79.5454 13.2102 79.5454 15.2085V24.0777H83.028V14.6277C83.0183 11.0348 80.9973 9.03649 77.9365 9.03649ZM92.4362 4.08512C87.7273 4.08512 84.8822 7.78635 84.8725 14.2143C84.8725 20.6619 87.6978 24.4123 92.4362 24.4123C97.1648 24.4222 100 20.6717 100 14.2143C99.9902 7.7962 97.1452 4.08512 92.4362 4.08512ZM88.4728 14.2143C88.4826 9.51884 90.0032 7.04807 92.4362 7.04807C94.1039 7.04807 95.3401 8.18994 95.9581 10.4048L88.5317 15.8188C88.4925 15.3267 88.4728 14.7852 88.4728 14.2143ZM92.4362 21.41C90.7194 21.41 89.4538 20.1894 88.8554 17.8269L96.3211 12.3833C96.38 12.9543 96.4094 13.5646 96.4094 14.2241C96.4094 18.9491 94.8888 21.41 92.4362 21.41ZM54.2837 17.8465C54.2837 20.1007 52.6748 21.223 51.1346 21.223C49.457 21.223 48.3485 20.0319 48.3485 18.1517V9.25306H44.8658V18.6932C44.8658 22.2565 46.8868 24.2746 49.7906 24.2746C52.0078 24.2746 53.5578 23.1031 54.2347 21.4494H54.3916V24.0875H57.7664V9.25306H54.2837V17.8465ZM36.988 9.02665C33.8781 9.02665 31.4943 10.4146 30.7291 13.1216L33.9763 13.5843C34.3196 12.5704 35.3007 11.7041 37.0077 11.7041C38.6264 11.7041 39.5094 12.531 39.5094 13.9879V14.0469C39.5094 15.051 38.4596 15.1002 35.8501 15.3758C32.9854 15.681 30.2385 16.5473 30.2385 19.8842C30.2385 22.798 32.3674 24.3435 35.183 24.3435C37.4983 24.3435 38.8815 23.2507 39.5191 22.0105H39.6369V24.0481H42.9822V14.1257C42.992 10.2079 39.8135 9.02665 36.988 9.02665ZM39.5191 18.7227C39.5191 20.3764 38.1948 21.7742 36.0953 21.7742C34.6435 21.7742 33.6035 21.1048 33.6035 19.8252C33.6035 18.4864 34.771 17.9253 36.321 17.6989C37.2333 17.571 39.058 17.3446 39.5191 16.9705V18.7227ZM65.2027 5.54199H61.72V9.25306H59.6107V12.0388H61.72V20.2484C61.7004 23.0342 63.7214 24.4123 66.3406 24.3336C67.1256 24.3139 67.7141 24.1859 68.1163 24.0678V21.3017C67.8515 21.3411 67.2335 21.4199 66.792 21.4298C65.9188 21.4494 65.2125 21.1246 65.2125 19.707V12.0388H68.1163V9.2629H65.2027V5.54199Z" fill="black"/>
</g>
<defs>
<clipPath id="clip0_1_3456">
<rect width="100" height="29.6296" fill="white"/>
</clipPath>
</defs>
</svg>

<svg xmlns="http://www.w3.org/2000/svg" width="213.333" height="64" fill="none" viewBox="0 0 100 30"><g clip-path="url(#a)"><path fill="#000" d="M22.88 0h-9.594l2.963 9.273h9.595l-7.76 5.522 2.962 9.322c4.994-3.652 6.632-9.184 4.798-14.854L22.88 0ZM.73 9.273h9.595L13.285 0H3.692L.729 9.273c-1.835 5.67-.196 11.202 4.797 14.854l2.963-9.322-7.76-5.532Zm4.797 14.844 7.76 5.512 7.76-5.512-7.76-5.61-7.76 5.61Zm72.41-15.08c-2.266 0-3.718 1.033-4.395 2.716h-.176V4.125H69.96v19.953h3.482v-8.663c0-2.146 1.325-3.376 3.199-3.376 1.824 0 2.903 1.171 2.903 3.17v8.869h3.483v-9.45c-.01-3.593-2.03-5.592-5.092-5.592Zm14.5-4.952c-4.709 0-7.554 3.701-7.564 10.13 0 6.447 2.826 10.197 7.564 10.197 4.729.01 7.564-3.74 7.564-10.198-.01-6.418-2.855-10.129-7.564-10.129Zm-3.963 10.13c.01-4.696 1.53-7.167 3.963-7.167 1.668 0 2.904 1.142 3.522 3.357l-7.426 5.414a20.41 20.41 0 0 1-.06-1.605Zm3.963 7.195c-1.717 0-2.982-1.22-3.58-3.583l7.465-5.444c.059.571.088 1.182.088 1.841 0 4.725-1.52 7.186-3.973 7.186Zm-38.152-3.564c0 2.255-1.61 3.377-3.15 3.377-1.677 0-2.785-1.191-2.785-3.071V9.253h-3.483v9.44c0 3.563 2.02 5.582 4.925 5.582 2.217 0 3.767-1.172 4.444-2.826h.157v2.638h3.374V9.253h-3.482v8.593Zm-17.296-8.82c-3.11 0-5.494 1.389-6.259 4.096l3.247.462c.344-1.014 1.325-1.88 3.032-1.88 1.618 0 2.501.827 2.501 2.284v.059c0 1.004-1.05 1.053-3.659 1.329-2.865.305-5.612 1.171-5.612 4.508 0 2.914 2.13 4.46 4.945 4.46 2.315 0 3.699-1.093 4.336-2.334h.118v2.038h3.345v-9.922c.01-3.918-3.169-5.1-5.994-5.1Zm2.531 9.697c0 1.653-1.324 3.051-3.424 3.051-1.451 0-2.492-.67-2.492-1.949 0-1.339 1.168-1.9 2.718-2.126.912-.128 2.737-.354 3.198-.729v1.753ZM65.203 5.542H61.72v3.711h-2.11v2.786h2.11v8.21c-.02 2.785 2.001 4.163 4.62 4.085a6.847 6.847 0 0 0 1.776-.266v-2.766c-.264.04-.882.118-1.324.128-.873.02-1.58-.305-1.58-1.723v-7.668h2.904V9.263h-2.913V5.542Z"/></g><defs><clipPath id="a"><path fill="#fff" d="M0 0h100v29.63H0z"/></clipPath></defs></svg>
